newicons/emoji_musical_keyboard.svg

<?xml version="1.0" encoding="UTF-8" standalone="no"?>
<svg
   version="1.2"
   viewBox="0 0 48 48"
   id="svg7"
   xmlns="http://www.w3.org/2000/svg"
   xmlns:svg="http://www.w3.org/2000/svg">
  <defs
     id="defs1" />
  <path
     d="m 14.751933,32.946605 v 9.553396"
     fill="none"
     stroke="#ffffff"
     stroke-linecap="round"
     stroke-linejoin="round"
     stroke-width="1"
     id="path1"
     style="stroke-width:1;stroke-dasharray:none" />
  <path
     d="m 24,32.946605 v 9.553396"
     fill="none"
     stroke="#ffffff"
     stroke-linecap="round"
     stroke-linejoin="round"
     stroke-width="1"
     id="path2"
     style="stroke-width:1;stroke-dasharray:none" />
  <path
     d="m 33.248068,32.946605 v 9.553396"
     fill="none"
     stroke="#ffffff"
     stroke-linecap="round"
     stroke-linejoin="round"
     stroke-width="1"
     id="path3"
     style="stroke-width:1;stroke-dasharray:none" />
  <path
     d="M 5.5038644,5.5077606 H 42.496136 V 42.500001 H 5.5038644 V 5.5077606"
     fill="none"
     stroke="#ffffff"
     stroke-linecap="round"
     stroke-linejoin="round"
     stroke-width="1"
     id="path4"
     style="stroke-width:1;stroke-dasharray:none" />
  <path
     d="m 10.944946,5.4999991 h 5.746416 V 29.491137 H 10.944946 V 5.4999991"
     fill="none"
     stroke="#ffffff"
     stroke-linecap="round"
     stroke-linejoin="round"
     stroke-width="1"
     id="path5"
     style="stroke-width:1;stroke-dasharray:none" />
  <path
     d="m 21.12687,5.4999991 h 5.746338 V 29.491137 H 21.12687 V 5.4999991"
     fill="none"
     stroke="#ffffff"
     stroke-linecap="round"
     stroke-linejoin="round"
     stroke-width="1"
     id="path6"
     style="stroke-width:1;stroke-dasharray:none" />
  <path
     d="m 31.308717,5.4999991 h 5.746338 V 29.491137 H 31.308717 V 5.4999991"
     fill="none"
     stroke="#ffffff"
     stroke-linecap="round"
     stroke-linejoin="round"
     stroke-width="1"
     id="path7"
     style="stroke-width:1;stroke-dasharray:none" />
</svg>

<?xml version="1.0" encoding="UTF-8"?><svg id="b" xmlns="http://www.w3.org/2000/svg" viewBox="0 0 48 48"><defs><style>.j{fill:none;stroke:#fff;stroke-linecap:round;stroke-linejoin:round;}</style></defs><path id="c" class="j" d="m14.7519,32.9466v9.5534"/><path id="d" class="j" d="m24,32.9466v9.5534"/><path id="e" class="j" d="m33.2481,32.9466v9.5534"/><path id="f" class="j" d="m5.5039,5.5078h36.9923v36.9922H5.5039V5.5078"/><path id="g" class="j" d="m10.9449,5.5h5.7464v23.9911h-5.7464V5.5"/><path id="h" class="j" d="m21.1269,5.5h5.7463v23.9911h-5.7463V5.5"/><path id="i" class="j" d="m31.3087,5.5h5.7463v23.9911h-5.7463V5.5"/></svg>
